FRONTEND/src/assets/images/VectorSearch.svg

<svg width="22" height="22" viewBox="0 0 22 22" fill="none" xmlns="http://www.w3.org/2000/svg">
<path d="M20.2889 22L12.5889 14.3C11.9778 14.7889 11.275 15.1759 10.4806 15.4611C9.68611 15.7463 8.84074 15.8889 7.94444 15.8889C5.72407 15.8889 3.84511 15.1197 2.30756 13.5813C0.77 12.043 0.000814815 10.164 0 7.94444C0 5.72407 0.769185 3.84511 2.30756 2.30756C3.84593 0.77 5.72489 0.000814815 7.94444 0C10.1648 0 12.0442 0.769185 13.5826 2.30756C15.1209 3.84593 15.8897 5.72489 15.8889 7.94444C15.8889 8.84074 15.7463 9.68611 15.4611 10.4806C15.1759 11.275 14.7889 11.9778 14.3 12.5889L22 20.2889L20.2889 22ZM7.94444 13.4444C9.47222 13.4444 10.771 12.9099 11.8409 11.8409C12.9107 10.7719 13.4453 9.47304 13.4444 7.94444C13.4444 6.41667 12.9099 5.11826 11.8409 4.04922C10.7719 2.98019 9.47304 2.44526 7.94444 2.44444C6.41667 2.44444 5.11826 2.97937 4.04922 4.04922C2.98019 5.11907 2.44526 6.41748 2.44444 7.94444C2.44444 9.47222 2.97937 10.771 4.04922 11.8409C5.11907 12.9107 6.41748 13.4453 7.94444 13.4444Z" fill="white"/>
</svg>

<svg width="22" height="22" fill="none" xmlns="http://www.w3.org/2000/svg"><path d="m20.289 22-7.7-7.7a7.45 7.45 0 0 1-4.644 1.589c-2.22 0-4.1-.77-5.637-2.308C.77 12.043 0 10.164 0 7.944c0-2.22.77-4.099 2.308-5.636C3.846.77 5.725 0 7.944 0c2.22 0 4.1.77 5.639 2.308 1.538 1.538 2.307 3.417 2.306 5.636A7.45 7.45 0 0 1 14.3 12.59l7.7 7.7L20.289 22zM7.944 13.444c1.528 0 2.827-.534 3.897-1.603 1.07-1.07 1.604-2.368 1.603-3.897 0-1.527-.534-2.826-1.603-3.895-1.07-1.069-2.368-1.604-3.897-1.605-1.527 0-2.826.535-3.895 1.605C2.98 5.12 2.445 6.417 2.444 7.944c0 1.528.535 2.827 1.605 3.897 1.07 1.07 2.368 1.604 3.895 1.603z" fill="#fff"/></svg>
